svgs/khan_academy.svg

<?xml version="1.0" encoding="UTF-8" standalone="no"?>
<svg
   viewBox="0 0 24 24"
   version="1.1"
   id="svg34"
   sodipodi:docname="khan_academy.svg"
   width="24"
   height="24"
   inkscape:version="1.1.1 (3bf5ae0d25, 2021-09-20)"
   xmlns:inkscape="http://www.inkscape.org/namespaces/inkscape"
   xmlns:sodipodi="http://sodipodi.sourceforge.net/DTD/sodipodi-0.dtd"
   xmlns="http://www.w3.org/2000/svg"
   xmlns:svg="http://www.w3.org/2000/svg">
  <defs
     id="defs38" />
  <sodipodi:namedview
     id="namedview36"
     pagecolor="#ffffff"
     bordercolor="#666666"
     borderopacity="1.0"
     inkscape:pageshadow="2"
     inkscape:pageopacity="0.0"
     inkscape:pagecheckerboard="0"
     showgrid="false"
     inkscape:zoom="26.30748"
     inkscape:cx="15.755975"
     inkscape:cy="12.410919"
     inkscape:window-width="1920"
     inkscape:window-height="1009"
     inkscape:window-x="-8"
     inkscape:window-y="-8"
     inkscape:window-maximized="1"
     inkscape:current-layer="svg34" />
  <path
     id="path2"
     style="stroke-width:0.13513"
     d="M 11.804688 2.015625 A 1.2675186 1.2675186 0 0 0 11.435547 2.1328125 L 3.78125 6.4921875 C 3.3785628 6.6948823 3.2167969 7.0202663 3.2167969 7.4648438 L 3.2167969 16.535156 C 3.2167969 16.979734 3.3785628 17.264579 3.78125 17.507812 L 11.435547 21.867188 A 1.2675186 1.2675186 0 0 0 12.564453 21.867188 L 20.21875 17.507812 C 20.624141 17.264578 20.783203 16.979734 20.783203 16.535156 L 20.783203 7.4648438 C 20.783203 6.9391884 20.539008 6.6543434 20.21875 6.4921875 L 12.564453 2.1328125 A 1.2675186 1.2675186 0 0 0 11.804688 2.015625 z M 12 6.2734375 A 2.1620787 2.1620787 0 0 1 13.529297 6.90625 A 2.1620787 2.1620787 0 0 1 13.529297 9.9648438 A 2.1620787 2.1620787 0 0 1 10.470703 9.9648438 A 2.1620787 2.1620787 0 0 1 10.470703 6.90625 A 2.1620787 2.1620787 0 0 1 12 6.2734375 z M 5.2792969 10.160156 C 8.9183456 10.179074 11.865234 13.228217 11.865234 16.990234 L 11.865234 17.150391 L 12.146484 17.150391 L 12.146484 16.990234 C 12.146484 13.228217 15.088411 10.179074 18.720703 10.160156 A 7.0348636 7.0348636 0 0 1 18.755859 10.878906 C 18.755859 13.820685 16.953165 16.328891 14.431641 17.291016 A 7.0267558 7.0267558 0 0 1 12 17.726562 A 6.9240571 6.9240571 0 0 1 9.5683594 17.291016 C 7.0454838 16.328891 5.2441406 13.820685 5.2441406 10.878906 A 7.0348636 7.0348636 0 0 1 5.2792969 10.160156 z " />
</svg>

<svg xmlns="http://www.w3.org/2000/svg" width="24" height="24" viewBox="0 0 24 24"><path d="M11.805 2.016a1.268 1.268 0 0 0-.37.117l-7.654 4.36c-.402.202-.564.527-.564.972v9.07c0 .445.162.73.564.973l7.655 4.36a1.268 1.268 0 0 0 1.128 0l7.655-4.36c.405-.243.564-.528.564-.973v-9.07c0-.526-.244-.81-.564-.973l-7.655-4.36a1.268 1.268 0 0 0-.76-.116M12 6.273a2.162 2.162 0 0 1 1.53.633 2.162 2.162 0 0 1 0 3.059 2.162 2.162 0 0 1-3.06 0 2.162 2.162 0 0 1 0-3.059A2.162 2.162 0 0 1 12 6.273M5.28 10.16c3.638.02 6.585 3.068 6.585 6.83v.16h.281v-.16c0-3.762 2.942-6.81 6.575-6.83a7.035 7.035 0 0 1 .035.719c0 2.942-1.803 5.45-4.324 6.412a7.027 7.027 0 0 1-2.432.436 6.924 6.924 0 0 1-2.432-.436c-2.523-.962-4.324-3.47-4.324-6.412a7.035 7.035 0 0 1 .035-.719" style="stroke-width:.13513"/></svg>
